X:419
T:
N:
S:Efter instrumentmakare Köhler i Visby m. fl.
R:vals
O:Gotland, Visby
M:3/4
L:1/8
K:G
B6|B2 A2 B2|d4 c2|A6|A4 F2|D2 F2 A2|e4 d2|B6|B4 BB|B2 c2 d2|e4
e2|e2 f2 g2|g2 B2 e2|d3 cBA|G2 FGBA|G6::cBA^G A2|cBA^G A2|BAGF G2|BAGF
G2|cBA^G A2|cBA^G A2|d2 cBcA|G6:|
K:C
|c4 e2|c4 e2|G2c2 d2|e3 dc2|e3 d c2|fgfedc|B2 c2 d2|e4 ee|e2 f2 g2|a4
a2|a2 b2 c'2|c'2 e2 a2|g3 fed|d2 GedB|c6:|

